X:2509
T:Saw Ye My Wee Thing
P:Saw Ye My Wee Thing
C:D. McDonald
R:Jig (8x32)
B:RSCDS 25-9
Z:Anselm Lingnau <anselm@strathspey.org>
M:6/8
L:1/8
K:A
|:E|"A"A3 cBA|ecA "D"fga|"A"ecA "B7"AGA|"E7"BGE EFG|
    "A"A3 cBA|ecA "D"fga|"A"fg"(Bm)"e "A"cd"E7"B|"A"A3 A2:|
|:c|"E7"BGE EFG|"A"ABc "F#m"FGA|"D"FGA "Bm"Bcd|"B7"FBA "E7"GFE|
    "E7"BGE EFG|"A"ABc "F#m"FGA|"E7"Efd eEG|B3 "A"A2:|

